libs/ui/packages/crypto-icons/src/svg/BOS.svg

<svg width="24" height="24" viewBox="0 0 24 24" fill="none">
<path fill-rule="evenodd" clip-rule="evenodd" d="M10.449 14.2125V12.7748H12.6645C14.142 12.7748 14.8807 12.4058 14.8807 11.6678V7.79475C14.8807 7.0575 14.142 6.6885 12.6645 6.6885H9.12V9.012H7.125V5.25H12.4425C15.3975 5.25 16.875 6.0615 16.875 7.6845V11.7787C16.875 13.4017 15.3975 14.2133 12.4425 14.2133H10.449V14.2125ZM14.8807 15.0983H16.875V16.3155C16.875 17.9385 15.3975 18.75 12.4425 18.75H7.125V10.119H12.4425C12.7552 10.119 13.05 10.128 13.3298 10.146V11.5868C13.1086 11.566 12.8866 11.556 12.6645 11.5568H9.12V17.3115H12.6652C14.1427 17.3115 14.8815 16.9425 14.8815 16.2052V15.0975L14.8807 15.0983Z" fill="#00A8D6"/>
</svg>

<svg width="24" height="24" viewBox="0 0 24 24" fill="none"><path fill="#00a8d6" fill-rule="evenodd" d="M10.449 14.213v-1.438h2.216q2.216 0 2.216-1.107V7.795q0-1.106-2.216-1.106H9.12v2.323H7.125V5.25h5.318q4.432 0 4.432 2.435v4.094q0 2.434-4.432 2.434zm4.432.885h1.994v1.217q0 2.435-4.432 2.435H7.125v-8.631h5.318q.467 0 .887.027v1.44a7 7 0 0 0-.665-.03H9.12v5.756h3.545q2.217 0 2.217-1.107z" clip-rule="evenodd"/></svg>
